X:160
T:Dan the Cobbler
M:6/8
L:1/8
Q:120
S:THSP
R:jig
D:
Z:
K:D
"D"DFA B2A|def gfe|"G"~f3 ecA|"A"~B3 AFE|
"D"DFA B2A|def gfe|"G"~f3 ecB|1 "A"Adc "D"d3:|2 "A"Adc "D"d2d||:
"D"fad fad|faa agf|"C"eg=c eg=c|egg gfe|"D"~f3 "G"gfg|
"D"agf efg|fed cAG|1 "A"Adc "D"d2d:|2 "A"Adc "D"d3|]
